src/assets/filled/Educare.svg

<svg width="24" height="24" viewBox="0 0 24 24"  xmlns="http://www.w3.org/2000/svg">
<path d="M7.93005 5.47945L11.0601 8.60945C11.5801 9.12945 12.4301 9.12945 12.9501 8.60945L16.0801 5.47945C16.9201 4.63945 16.3301 3.18945 15.1301 3.18945H8.87006C7.68006 3.18945 7.08005 4.63945 7.93005 5.47945Z" />
<path d="M7.93005 18.52L11.0601 15.39C11.5801 14.87 12.4301 14.87 12.9501 15.39L16.0801 18.52C16.9201 19.36 16.3301 20.81 15.1301 20.81H8.87006C7.68006 20.81 7.08005 19.36 7.93005 18.52Z" />
<path d="M2.15994 11.4301L4.44998 7.83008C4.80998 7.26008 5.60999 7.17008 6.08999 7.65008L9.68997 11.2501C10.1 11.6601 10.1 12.3301 9.68997 12.7401L6.08999 16.3401C5.60999 16.8201 4.81998 16.7301 4.44998 16.1601L2.15994 12.5601C1.94994 12.2201 1.94994 11.7801 2.15994 11.4301Z" />
<path d="M21.84 11.4301L19.5499 7.83008C19.1899 7.26008 18.3899 7.17008 17.9099 7.65008L14.3099 11.2501C13.8999 11.6601 13.8999 12.3301 14.3099 12.7401L17.9099 16.3401C18.3899 16.8201 19.1799 16.7301 19.5499 16.1601L21.84 12.5601C22.05 12.2201 22.05 11.7801 21.84 11.4301Z" />
</svg>

<?xml version="1.0" encoding="UTF-8"?>
<svg width="24" height="24" viewBox="0 0 24 24" xmlns="http://www.w3.org/2000/svg">
 <path d="m7.93 5.4794 3.13 3.13c0.52 0.52 1.37 0.52 1.89 0l3.13-3.13c0.84-0.84 0.25-2.29-0.95-2.29h-6.26c-1.19 0-1.79 1.45-0.94001 2.29z"/>
 <path d="m7.93 18.52 3.13-3.13c0.52-0.52 1.37-0.52 1.89 0l3.13 3.13c0.84 0.84 0.25 2.29-0.95 2.29h-6.26c-1.19 0-1.79-1.45-0.94001-2.29z"/>
 <path d="m2.1599 11.43 2.29-3.6c0.36-0.57 1.16-0.66 1.64-0.18l3.6 3.6c0.41003 0.41 0.41003 1.08 0 1.49l-3.6 3.6c-0.48 0.48-1.27 0.39-1.64-0.18l-2.29-3.6c-0.21-0.34-0.21-0.78 0-1.13z"/>
 <path d="m21.84 11.43-2.2901-3.6c-0.36-0.57-1.16-0.66-1.64-0.18l-3.6 3.6c-0.41 0.41-0.41 1.08 0 1.49l3.6 3.6c0.48 0.48 1.27 0.39 1.64-0.18l2.2901-3.6c0.21-0.34 0.21-0.78 0-1.13z"/>
</svg>
